svgs/radio-selected.svg

<!-- Generated by IcoMoon.io -->
<svg version="1.1" xmlns="http://www.w3.org/2000/svg" width="1500" height="1500" viewBox="0 0 1500 1500">
<title>radio-selected</title>
<path d="M750 1352.112c330.986 0 602.112-271.126 602.112-602.112s-271.126-602.112-602.112-602.112-602.112 271.126-602.112 602.112 271.126 602.112 602.112 602.112zM750 0c415.493 0 750 334.507 750 750s-334.507 750-750 750-750-334.507-750-750 334.507-750 750-750zM750 373.239c207.747 0 376.761 169.014 376.761 376.761s-169.014 376.761-376.761 376.761-376.761-169.014-376.761-376.761 169.014-376.761 376.761-376.761z"></path>
</svg>

<svg xmlns="http://www.w3.org/2000/svg" width="1500" height="1500" viewBox="0 0 1500 1500"><path d="M750 1352.112c330.986 0 602.112-271.126 602.112-602.112S1080.986 147.888 750 147.888 147.888 419.014 147.888 750 419.014 1352.112 750 1352.112zM750 0c415.493 0 750 334.507 750 750s-334.507 750-750 750S0 1165.493 0 750 334.507 0 750 0zm0 373.239c207.747 0 376.761 169.014 376.761 376.761S957.747 1126.761 750 1126.761 373.239 957.747 373.239 750 542.253 373.239 750 373.239z"/></svg>
